X: 16298
T: Grinders, The
R: slip jig
M: 9/8
K: Gmajor
AGE A2B G2B|A2E ABd e2f|gdB BAB GBA|1 GED GAB dcB:|2 GED GAB d3||
efg edB BAB|gbg edB d3|efg edB BAB|GED GAB d3|
efg edB BAB|g2g edB d2g|e2g edB BAB|GED GAB dcB||

